source/img/Group.svg

<svg width="188" height="104" viewBox="0 0 188 104" version="1.1" xmlns="http://www.w3.org/2000/svg" xmlns:xlink="http://www.w3.org/1999/xlink">
<title>Group</title>
<desc>Created using Figma</desc>
<g id="Canvas" transform="translate(436 122)">
<g id="Group">
<g id="Vector 3">
<use xlink:href="#path0_fill" transform="translate(-305.957 -122)" fill="#FFFFFF"/>
</g>
<g id="Vector">
<use xlink:href="#path1_fill" transform="translate(-436 -110)" fill="#FFFFFF"/>
</g>
<g id="Vector 2">
<use xlink:href="#path2_fill" transform="translate(-398.5 -121.5)" fill="#FFFFFF"/>
</g>
<g id="ARTEM ILCHENKO">
<use xlink:href="#path3_fill" transform="translate(-436 -41)" fill="#FFFFFF"/>
</g>
<g id="HTML coder">
<use xlink:href="#path4_fill" transform="matrix(2.22045e-16 -1 1 2.22045e-16 -261 -50)" fill="#FFFFFF"/>
</g>
</g>
</g>
<defs>
<path id="path0_fill" d="M 0.0198699 15C 1.51986 10.5 8.25007 10.8237 8.01986 10.5C 7.78965 10.1763 12.0199 0 18.5199 0C 23.5199 0 25.632 2.15938 28.0199 7C 32.1805 6.64142 34.1068 7.08544 36.5199 9.5C 37.2419 11.4426 37.0199 13.5 37.0199 14.5C 37.0199 15.5 46.0964 14.3059 45.0199 21C 44.7969 25.6195 42.6014 26.8636 37.0199 28L 34.0199 28C 31.3106 30.9004 29.2391 31.3969 27.0199 32.5C 24.8007 33.6031 21.4311 35.5828 18.5199 33.5C 15.4928 31.3343 15.3367 23.1655 1.95689 23.5C 0.956877 23.5 -0.163504 16.3789 0.0198699 15Z"/>
<path id="path1_fill" d="M 34.5 46.0017C 33.8585 41.8151 33.5 43.0017 33.5 39.0017C 33.5 34.9706 34 33.0017 36.5 28.5017C 39 24.5017 40.689 23.2751 44.5 21.0017C 47.9617 18.8297 52 18.0017 53.5 17.5017C 55 17.0017 55 15.0017 55 14.0017C 54.5 9.00169 54.1059 7.00143 54 6.5017C 53.8941 6.00196 50.8663 2.89167 48.5 1.5017C 45.1906 0.0827688 43.7118 -0.016176 40 0.00169643C 35.9805 0.528446 34.1964 1.38718 31.5 3.5017C 29.3179 5.9307 28.282 7.51335 27 11.0017C 26.2441 13.1374 25.96 14.0241 25.5 15.5017C 25.483 15.6006 24.6564 17.1235 24.5 17.0017C 24.3436 16.8799 22.6431 15.901 21 16.0017C 19.3569 16.1024 17.5 16.5017 16 18.0017C 14.9548 19.0469 14.4228 21.0483 13 22.5017C 11.5772 23.9551 7.52447 23.0502 5 24.5017C 1.61906 27.4845 0.645893 29.5004 0 33.5017C 0.814697 37.5278 1.92857 38.6488 4 40.5017C 6.8035 41.8692 8.56002 42.2981 12 42.5017L 17 42.5017C 17.5202 44.9322 17.958 45.9177 19 47.0017C 21.985 49.0912 22.2497 48.9172 25.5 50.0017C 30.8527 50.7822 35.1415 50.1883 34.5 46.0017Z"/>
<path id="path2_fill" fill-rule="evenodd" d="M 0 50.5C 0.994162 44.1664 2.62606 41.4899 6.5 37.5C 11.5 34 19 33.5 19.5 32.5C 20 31.5 19.8457 26.3765 21.5 22.5C 23.1543 18.6235 24.261 16.8055 27.5 16C 32.5 15 39.5427 16.6759 40.5 16C 41.4573 15.3241 45.9145 8.04671 50 4.5C 55.0117 1.30037 58.005 0.523398 63.5 0C 70.7926 0.829633 73.2898 2.10368 77.5 4.5C 81.8977 8.27666 83.9319 10.6477 86.5 15.5C 87.7963 19.6454 88.3713 21.9483 89 26C 92.823 25.6648 95.5311 25.3131 100 26C 106 28 106.546 31.1749 108.5 35C 113.616 36.4219 112.61 35.3493 120 38C 127.39 40.6507 129.724 45.9955 130 52.5C 129.753 59.5034 126.481 61.9362 120.5 65.5C 114.519 69.0638 106.853 66.0149 103.5 67.5C 100.147 68.9851 99 73.5 97.5 75.5C 94.7954 79.2081 92.7261 79.7083 89 80.5C 84.6229 80.5148 82.5 80 79 79C 75 77.5 74.0483 77.1022 71.5 75.5C 67.7705 77.065 65.5372 77.6238 61.5 78.5C 58.6969 79.2535 56.9781 79.5095 53.5 79.5C 48.8165 79.0326 45.9769 78.3878 40.5 76.5C 34.7668 73.6073 31.9054 71.546 27.5 67C 21.2878 67.0454 18.0364 66.6584 12.5 65.5C 9.66357 64.301 8.23975 63.535 6 62C 3.28601 60.0695 2.40919 58.803 1 56.5C 0.239696 54.1568 0.0543817 52.8431 0 50.5ZM 26 48.5L 26 41L 55 26L 53 34L 33 45L 46.5 56.5L 45 63.5L 26 48.5ZM 51 64L 62 26L 69 26L 58 64L 51 64ZM 73 33L 75 26L 95 43L 92 50L 64 63.5L 66 56L 86 44.5L 73 33Z"/>
<path id="path3_fill" d="M 10.8179 22L 10.0796 19.1904L 5.20898 19.1904L 4.4502 22L 0 22L 4.89111 6.94727L 10.2949 6.94727L 15.2476 22L 10.8179 22ZM 9.23877 15.8682L 8.59277 13.4072C 8.44238 12.8604 8.25781 12.1528 8.03906 11.2847C 7.82715 10.4165 7.68701 9.79443 7.61865 9.41846C 7.55713 9.76709 7.43408 10.3413 7.24951 11.1411C 7.07178 11.9409 6.67188 13.5166 6.0498 15.8682L 9.23877 15.8682ZM 20.9282 16.5449L 20.9282 22L 16.8779 22L 16.8779 7.00879L 21.7896 7.00879C 25.8638 7.00879 27.9009 8.48535 27.9009 11.4385C 27.9009 13.1748 27.0532 14.5181 25.3579 15.4683L 29.7261 22L 25.1323 22L 21.9536 16.5449L 20.9282 16.5449ZM 20.9282 13.4995L 21.687 13.4995C 23.1021 13.4995 23.8096 12.874 23.8096 11.623C 23.8096 10.5908 23.1157 10.0747 21.728 10.0747L 20.9282 10.0747L 20.9282 13.4995ZM 37.7036 22L 33.6533 22L 33.6533 10.3208L 29.9927 10.3208L 29.9927 7.00879L 41.354 7.00879L 41.354 10.3208L 37.7036 10.3208L 37.7036 22ZM 52.3975 22L 43.4971 22L 43.4971 7.00879L 52.3975 7.00879L 52.3975 10.2593L 47.5474 10.2593L 47.5474 12.6177L 52.0386 12.6177L 52.0386 15.8682L 47.5474 15.8682L 47.5474 18.6982L 52.3975 18.6982L 52.3975 22ZM 61.5542 22L 58.4883 11.2026L 58.396 11.2026C 58.5396 13.0415 58.6113 14.4702 58.6113 15.4888L 58.6113 22L 55.0225 22L 55.0225 7.00879L 60.416 7.00879L 63.5435 17.6523L 63.6255 17.6523L 66.6914 7.00879L 72.0952 7.00879L 72.0952 22L 68.373 22L 68.373 15.4272C 68.373 15.0854 68.3765 14.7061 68.3833 14.2891C 68.397 13.8721 68.4448 12.8501 68.5269 11.2231L 68.4346 11.2231L 65.4097 22L 61.5542 22ZM 80.7803 22L 80.7803 7.00879L 84.8511 7.00879L 84.8511 22L 80.7803 22ZM 88.1016 22L 88.1016 7.00879L 92.1519 7.00879L 92.1519 18.729L 97.9248 18.729L 97.9248 22L 88.1016 22ZM 107 10.1157C 106.036 10.1157 105.284 10.5122 104.744 11.3052C 104.204 12.0913 103.934 13.1782 103.934 14.5659C 103.934 17.4507 105.031 18.8931 107.225 18.8931C 107.888 18.8931 108.531 18.8008 109.153 18.6162C 109.775 18.4316 110.4 18.2095 111.029 17.9497L 111.029 21.3745C 109.778 21.9282 108.363 22.2051 106.784 22.2051C 104.521 22.2051 102.785 21.5488 101.575 20.2363C 100.372 18.9238 99.7705 17.0269 99.7705 14.5454C 99.7705 12.9937 100.061 11.6299 100.642 10.4541C 101.23 9.27832 102.071 8.37598 103.165 7.74707C 104.265 7.11133 105.557 6.79346 107.041 6.79346C 108.661 6.79346 110.209 7.14551 111.686 7.84961L 110.445 11.0386C 109.891 10.7788 109.337 10.5601 108.784 10.3823C 108.23 10.2046 107.635 10.1157 107 10.1157ZM 126.81 22L 122.739 22L 122.739 15.8887L 118.033 15.8887L 118.033 22L 113.962 22L 113.962 7.00879L 118.033 7.00879L 118.033 12.5664L 122.739 12.5664L 122.739 7.00879L 126.81 7.00879L 126.81 22ZM 138.961 22L 130.061 22L 130.061 7.00879L 138.961 7.00879L 138.961 10.2593L 134.111 10.2593L 134.111 12.6177L 138.602 12.6177L 138.602 15.8682L 134.111 15.8682L 134.111 18.6982L 138.961 18.6982L 138.961 22ZM 155.859 22L 150.548 22L 145.072 11.4385L 144.98 11.4385C 145.11 13.0996 145.175 14.3677 145.175 15.2427L 145.175 22L 141.586 22L 141.586 7.00879L 146.877 7.00879L 152.332 17.4268L 152.394 17.4268C 152.298 15.916 152.25 14.7026 152.25 13.7866L 152.25 7.00879L 155.859 7.00879L 155.859 22ZM 171.907 22L 167.333 22L 164.37 16.2681L 163.17 16.9858L 163.17 22L 159.1 22L 159.1 7.00879L 163.17 7.00879L 163.17 13.52C 163.375 13.1167 163.789 12.4775 164.411 11.6025L 167.559 7.00879L 171.989 7.00879L 167.262 13.7251L 171.907 22ZM 187.564 14.4839C 187.564 17.0063 186.946 18.9238 185.708 20.2363C 184.471 21.5488 182.66 22.2051 180.274 22.2051C 177.922 22.2051 176.118 21.5454 174.86 20.2261C 173.609 18.9067 172.983 16.9858 172.983 14.4634C 172.983 11.9683 173.605 10.0645 174.85 8.75195C 176.101 7.43262 177.916 6.77295 180.294 6.77295C 182.68 6.77295 184.488 7.42578 185.719 8.73145C 186.949 10.0371 187.564 11.9546 187.564 14.4839ZM 177.249 14.4839C 177.249 17.3823 178.257 18.8315 180.274 18.8315C 181.299 18.8315 182.058 18.4795 182.55 17.7754C 183.049 17.0713 183.299 15.9741 183.299 14.4839C 183.299 12.9868 183.046 11.8828 182.54 11.1719C 182.041 10.4541 181.292 10.0952 180.294 10.0952C 178.264 10.0952 177.249 11.5581 177.249 14.4839Z"/>
<path id="path4_fill" d="M 6.88965 11L 4.95117 11L 4.95117 8.08984L 2.70996 8.08984L 2.70996 11L 0.771484 11L 0.771484 3.86133L 2.70996 3.86133L 2.70996 6.50781L 4.95117 6.50781L 4.95117 3.86133L 6.88965 3.86133L 6.88965 11ZM 11.5869 11L 9.6582 11L 9.6582 5.43848L 7.91504 5.43848L 7.91504 3.86133L 13.3252 3.86133L 13.3252 5.43848L 11.5869 5.43848L 11.5869 11ZM 17.4561 11L 15.9961 5.8584L 15.9521 5.8584C 16.0205 6.73405 16.0547 7.41439 16.0547 7.89941L 16.0547 11L 14.3457 11L 14.3457 3.86133L 16.9141 3.86133L 18.4033 8.92969L 18.4424 8.92969L 19.9023 3.86133L 22.4756 3.86133L 22.4756 11L 20.7031 11L 20.7031 7.87012C 20.7031 7.70736 20.7048 7.52669 20.708 7.32812C 20.7145 7.12956 20.7373 6.6429 20.7764 5.86816L 20.7324 5.86816L 19.292 11L 17.4561 11ZM 24.0137 11L 24.0137 3.86133L 25.9424 3.86133L 25.9424 9.44238L 28.6914 9.44238L 28.6914 11L 24.0137 11ZM 34.8389 11.0977C 33.9339 11.0977 33.2471 10.8535 32.7783 10.3652C 32.3128 9.87695 32.0801 9.17546 32.0801 8.26074C 32.0801 7.34277 32.3324 6.63151 32.8369 6.12695C 33.3415 5.6224 34.0592 5.37012 34.9902 5.37012C 35.6315 5.37012 36.2354 5.51009 36.8018 5.79004L 36.2402 7.20117C 36.0091 7.10026 35.7959 7.02051 35.6006 6.96191C 35.4053 6.90007 35.2018 6.86914 34.9902 6.86914C 34.681 6.86914 34.4417 6.98958 34.2725 7.23047C 34.1032 7.47135 34.0186 7.81152 34.0186 8.25098C 34.0186 9.13639 34.3457 9.5791 35 9.5791C 35.5599 9.5791 36.097 9.41634 36.6113 9.09082L 36.6113 10.6094C 36.1198 10.9349 35.529 11.0977 34.8389 11.0977ZM 42.9932 8.22168C 42.9932 9.12663 42.749 9.83301 42.2607 10.3408C 41.7757 10.8454 41.0954 11.0977 40.2197 11.0977C 39.3799 11.0977 38.7109 10.8389 38.2129 10.3213C 37.7181 9.80371 37.4707 9.10384 37.4707 8.22168C 37.4707 7.31999 37.7132 6.62012 38.1982 6.12207C 38.6865 5.62077 39.3701 5.37012 40.249 5.37012C 40.7926 5.37012 41.2728 5.48568 41.6895 5.7168C 42.1061 5.94792 42.4268 6.27995 42.6514 6.71289C 42.8792 7.14258 42.9932 7.64551 42.9932 8.22168ZM 39.4092 8.22168C 39.4092 8.69694 39.4727 9.0599 39.5996 9.31055C 39.7266 9.55794 39.9398 9.68164 40.2393 9.68164C 40.5355 9.68164 40.7438 9.55794 40.8643 9.31055C 40.988 9.0599 41.0498 8.69694 41.0498 8.22168C 41.0498 7.74967 40.988 7.39323 40.8643 7.15234C 40.7406 6.91146 40.529 6.79102 40.2295 6.79102C 39.9365 6.79102 39.7266 6.91146 39.5996 7.15234C 39.4727 7.38997 39.4092 7.74642 39.4092 8.22168ZM 45.8057 11.0977C 45.4118 11.0977 45.0667 10.9854 44.7705 10.7607C 44.4775 10.5361 44.2497 10.2057 44.0869 9.76953C 43.9274 9.33333 43.8477 8.82389 43.8477 8.24121C 43.8477 7.34277 44.0283 6.63965 44.3896 6.13184C 44.751 5.62402 45.2474 5.37012 45.8789 5.37012C 46.1882 5.37012 46.4583 5.43197 46.6895 5.55566C 46.9238 5.67936 47.137 5.8877 47.3291 6.18066L 47.3682 6.18066C 47.3063 5.74772 47.2754 5.31478 47.2754 4.88184L 47.2754 3.40234L 49.1992 3.40234L 49.1992 11L 47.7588 11L 47.3486 10.3018L 47.2754 10.3018C 46.9466 10.8324 46.4567 11.0977 45.8057 11.0977ZM 46.5869 9.58887C 46.8929 9.58887 47.1077 9.49284 47.2314 9.30078C 47.3584 9.10872 47.4268 8.8125 47.4365 8.41211L 47.4365 8.26074C 47.4365 7.77246 47.3665 7.42578 47.2266 7.2207C 47.0866 7.01237 46.8669 6.9082 46.5674 6.9082C 46.3167 6.9082 46.1214 7.02702 45.9814 7.26465C 45.8447 7.49902 45.7764 7.83431 45.7764 8.27051C 45.7764 8.7002 45.8464 9.02734 45.9863 9.25195C 46.1263 9.47656 46.3265 9.58887 46.5869 9.58887ZM 53.1934 11.0977C 52.2721 11.0977 51.556 10.8535 51.0449 10.3652C 50.5371 9.8737 50.2832 9.17546 50.2832 8.27051C 50.2832 7.33626 50.5192 6.62012 50.9912 6.12207C 51.4632 5.62077 52.137 5.37012 53.0127 5.37012C 53.846 5.37012 54.4889 5.58822 54.9414 6.02441C 55.3971 6.45736 55.625 7.08236 55.625 7.89941L 55.625 8.74902L 52.2119 8.74902C 52.2249 9.05827 52.3372 9.30078 52.5488 9.47656C 52.7637 9.65234 53.055 9.74023 53.4229 9.74023C 53.7581 9.74023 54.0658 9.70931 54.3457 9.64746C 54.6289 9.58236 54.9349 9.47331 55.2637 9.32031L 55.2637 10.6924C 54.9642 10.8454 54.6549 10.9512 54.3359 11.0098C 54.0169 11.0684 53.6361 11.0977 53.1934 11.0977ZM 53.0811 6.66895C 52.8564 6.66895 52.6676 6.74056 52.5146 6.88379C 52.3649 7.02376 52.277 7.24512 52.251 7.54785L 53.8916 7.54785C 53.8851 7.28092 53.8086 7.06771 53.6621 6.9082C 53.5189 6.7487 53.3252 6.66895 53.0811 6.66895ZM 60.0439 5.37012C 60.21 5.37012 60.3678 5.38314 60.5176 5.40918L 60.625 5.42871L 60.4541 7.23047C 60.2979 7.19141 60.0814 7.17188 59.8047 7.17188C 59.388 7.17188 59.0853 7.2679 58.8965 7.45996C 58.7077 7.64876 58.6133 7.9222 58.6133 8.28027L 58.6133 11L 56.7041 11L 56.7041 5.46777L 58.125 5.46777L 58.4229 6.35156L 58.5156 6.35156C 58.6751 6.05859 58.8965 5.82259 59.1797 5.64355C 59.4661 5.46126 59.7542 5.37012 60.0439 5.37012Z"/>
</defs>
</svg>

<svg width="188" height="104" xmlns="http://www.w3.org/2000/svg" xmlns:xlink="http://www.w3.org/1999/xlink"><use xlink:href="#path0_fill" transform="translate(130.043)" fill="#FFF"/><use xlink:href="#path1_fill" transform="translate(0 12)" fill="#FFF"/><use xlink:href="#path2_fill" transform="translate(37.5 .5)" fill="#FFF"/><use xlink:href="#path3_fill" transform="translate(0 81)" fill="#FFF"/><use xlink:href="#path4_fill" transform="rotate(-90 123.5 -51.5)" fill="#FFF"/><defs><path id="path0_fill" d="M.02 15c1.5-4.5 8.23-4.176 8-4.5-.23-.324 4-10.5 10.5-10.5 5 0 7.112 2.16 9.5 7 4.16-.359 6.087.085 8.5 2.5.722 1.943.5 4 .5 5s9.076-.194 8 6.5c-.223 4.62-2.419 5.864-8 7h-3c-2.71 2.9-4.78 3.397-7 4.5-2.22 1.103-5.589 3.083-8.5 1-3.027-2.166-3.183-10.334-16.563-10-1 0-2.12-7.121-1.937-8.5z"/><path id="path1_fill" d="M34.5 46.002c-.642-4.187-1-3-1-7 0-4.031.5-6 3-10.5 2.5-4 4.189-5.227 8-7.5 3.462-2.172 7.5-3 9-3.5s1.5-2.5 1.5-3.5c-.5-5-.894-7-1-7.5-.106-.5-3.134-3.61-5.5-5-3.31-1.42-4.788-1.518-8.5-1.5-4.02.526-5.804 1.385-8.5 3.5-2.182 2.429-3.218 4.011-4.5 7.5a101.98 101.98 0 0 0-1.5 4.5c-.017.099-.844 1.621-1 1.5-.156-.122-1.857-1.101-3.5-1-1.643.1-3.5.5-5 2-1.045 1.045-1.577 3.046-3 4.5-1.423 1.453-5.476.548-8 2-3.38 2.983-4.354 4.998-5 9 .815 4.026 1.929 5.147 4 7 2.803 1.367 4.56 1.796 8 2h5c.52 2.43.958 3.416 2 4.5 2.985 2.09 3.25 1.915 6.5 3 5.353.78 9.642.186 9-4z"/><path id="path2_fill" fill-rule="evenodd" d="M0 50.5c.994-6.334 2.626-9.01 6.5-13 5-3.5 12.5-4 13-5s.346-6.123 2-10 2.761-5.695 6-6.5c5-1 12.043.676 13 0 .957-.676 5.414-7.953 9.5-11.5C55.012 1.3 58.005.523 63.5 0c7.293.83 9.79 2.104 14 4.5 4.398 3.777 6.432 6.148 9 11 1.296 4.145 1.871 6.448 2.5 10.5 3.823-.335 6.531-.687 11 0 6 2 6.546 5.175 8.5 9 5.116 1.422 4.11.35 11.5 3s9.724 7.995 10 14.5c-.247 7.003-3.519 9.436-9.5 13s-13.647.515-17 2c-3.353 1.485-4.5 6-6 8-2.705 3.708-4.774 4.208-8.5 5-4.377.015-6.5-.5-10-1.5-4-1.5-4.952-1.898-7.5-3.5-3.73 1.565-5.963 2.124-10 3-2.803.754-4.522 1.01-8 1-4.684-.467-7.523-1.112-13-3-5.733-2.893-8.595-4.954-13-9.5-6.212.045-9.464-.342-15-1.5C9.664 64.301 8.24 63.535 6 62c-2.714-1.93-3.59-3.197-5-5.5-.76-2.343-.946-3.657-1-6zm26-2V41l29-15-2 8-20 11 13.5 11.5-1.5 7-19-15zM51 64l11-38h7L58 64h-7zm22-31l2-7 20 17-3 7-28 13.5 2-7.5 20-11.5L73 33z"/><path id="path3_fill" d="M10.818 22l-.738-2.81H5.209L4.45 22H0L4.891 6.947h5.404L15.248 22h-4.43zm-1.58-6.132l-.645-2.46c-.15-.548-.335-1.255-.554-2.123a36.746 36.746 0 0 1-.42-1.867c-.062.35-.185.923-.37 1.723-.177.8-.577 2.376-1.2 4.727h3.19zm11.69.677V22h-4.05V7.009h4.912c4.074 0 6.11 1.476 6.11 4.43 0 1.736-.847 3.08-2.542 4.03L29.726 22h-4.594l-3.178-5.455h-1.026zm0-3.046h.759c1.415 0 2.123-.625 2.123-1.876 0-1.032-.694-1.548-2.082-1.548h-.8V13.5zM37.704 22h-4.05V10.32h-3.661V7.01h11.361v3.312h-3.65V22zm14.694 0h-8.9V7.009h8.9v3.25h-4.85v2.359h4.49v3.25h-4.49v2.83h4.85V22zm9.156 0l-3.066-10.797h-.092c.144 1.838.215 3.267.215 4.286V22h-3.588V7.009h5.393l3.128 10.643h.082L66.69 7.01h5.404V22h-3.722v-6.573c0-.342.003-.72.01-1.138.014-.417.062-1.439.144-3.066h-.092L65.41 22h-3.856zm19.226 0V7.009h4.071V22h-4.07zm7.322 0V7.009h4.05v11.72h5.773V22h-9.823zM107 10.116c-.964 0-1.716.396-2.256 1.19-.54.785-.81 1.872-.81 3.26 0 2.885 1.097 4.327 3.291 4.327.663 0 1.306-.092 1.928-.277a19.293 19.293 0 0 0 1.876-.666v3.425c-1.251.553-2.666.83-4.245.83-2.263 0-3.999-.656-5.209-1.969-1.203-1.312-1.805-3.21-1.805-5.69 0-1.552.291-2.916.872-4.092.588-1.176 1.429-2.078 2.523-2.707 1.1-.636 2.392-.954 3.876-.954 1.62 0 3.168.353 4.645 1.057l-1.241 3.189a14.02 14.02 0 0 0-1.661-.657 5.81 5.81 0 0 0-1.784-.266zM126.81 22h-4.071v-6.111h-4.706V22h-4.071V7.009h4.071v5.557h4.706V7.01h4.071V22zm12.151 0h-8.9V7.009h8.9v3.25h-4.85v2.359h4.491v3.25h-4.491v2.83h4.85V22zm16.898 0h-5.311l-5.476-10.562h-.092c.13 1.662.195 2.93.195 3.805V22h-3.589V7.009h5.291l5.455 10.418h.062c-.096-1.511-.144-2.724-.144-3.64V7.009h3.609V22zm16.048 0h-4.574l-2.963-5.732-1.2.718V22h-4.07V7.009h4.07v6.511c.205-.403.619-1.043 1.241-1.918l3.148-4.593h4.43l-4.727 6.716L171.907 22zm15.657-7.516c0 2.522-.618 4.44-1.856 5.752-1.237 1.313-3.048 1.97-5.434 1.97-2.352 0-4.156-.66-5.414-1.98-1.251-1.32-1.877-3.24-1.877-5.763 0-2.495.622-4.398 1.867-5.711 1.251-1.32 3.066-1.98 5.444-1.98 2.386 0 4.194.654 5.425 1.96 1.23 1.305 1.845 3.223 1.845 5.752zm-10.315 0c0 2.898 1.008 4.347 3.025 4.347 1.025 0 1.784-.351 2.276-1.056.499-.704.749-1.8.749-3.291 0-1.497-.253-2.601-.759-3.312-.499-.718-1.248-1.077-2.246-1.077-2.03 0-3.045 1.463-3.045 4.389z"/><path id="path4_fill" d="M6.89 11H4.95V8.09H2.71V11H.771V3.861H2.71v2.647h2.241V3.86H6.89V11zm4.697 0H9.658V5.438H7.915V3.861h5.41v1.577h-1.738V11zm5.87 0l-1.46-5.142h-.045c.068.876.103 1.556.103 2.041V11h-1.71V3.861h2.57l1.488 5.069h.04l1.46-5.069h2.573V11h-1.773V7.87c0-.163.002-.343.005-.542.007-.198.03-.685.068-1.46h-.044L19.292 11h-1.836zm6.557 0V3.861h1.928v5.581h2.75V11h-4.678zm10.825.098c-.905 0-1.592-.245-2.06-.733-.466-.488-.699-1.19-.699-2.104 0-.918.252-1.63.757-2.134.505-.505 1.222-.757 2.153-.757.642 0 1.245.14 1.812.42l-.562 1.411c-.23-.1-.444-.18-.64-.24a2.01 2.01 0 0 0-.61-.092c-.309 0-.548.12-.718.361-.169.241-.253.582-.253 1.021 0 .885.327 1.328.981 1.328.56 0 1.097-.163 1.611-.488v1.518c-.491.326-1.082.489-1.772.489zm8.154-2.876c0 .905-.244 1.611-.732 2.119-.485.504-1.166.757-2.041.757-.84 0-1.51-.26-2.007-.777-.495-.517-.742-1.217-.742-2.1 0-.901.242-1.6.727-2.099.489-.501 1.172-.752 2.051-.752.544 0 1.024.116 1.44.347.417.23.738.563.962.996.228.43.342.933.342 1.509zm-3.584 0c0 .475.064.838.19 1.089.128.247.34.37.64.37.297 0 .505-.123.625-.37.124-.251.186-.614.186-1.09 0-.471-.062-.828-.186-1.069-.123-.24-.335-.361-.634-.361-.293 0-.503.12-.63.361-.127.238-.19.594-.19 1.07zm6.397 2.876c-.394 0-.74-.113-1.035-.337-.294-.225-.521-.555-.684-.991-.16-.437-.24-.946-.24-1.529 0-.898.181-1.601.543-2.11.361-.507.857-.76 1.489-.76.31 0 .58.061.81.185.235.123.448.332.64.625h.04a9.165 9.165 0 0 1-.094-1.3V3.403H49.2V11h-1.44l-.41-.698h-.074c-.328.53-.818.796-1.47.796zm.78-1.51c.307 0 .522-.095.645-.287.127-.192.196-.489.206-.889v-.151c0-.489-.07-.835-.21-1.04-.14-.209-.36-.313-.66-.313-.25 0-.446.119-.586.357-.136.234-.205.57-.205 1.006 0 .43.07.756.21.981.14.225.34.337.6.337zm6.607 1.51c-.92 0-1.637-.245-2.148-.733-.508-.491-.762-1.19-.762-2.094 0-.935.236-1.65.708-2.149.472-.501 1.146-.752 2.022-.752.833 0 1.476.218 1.928.654.456.433.684 1.058.684 1.875v.85h-3.413c.013.31.125.552.337.728.215.175.506.263.874.263.335 0 .643-.03.923-.093.283-.065.589-.174.918-.327v1.372a3.37 3.37 0 0 1-.928.318c-.32.058-.7.088-1.143.088zm-.112-4.43a.797.797 0 0 0-.566.216c-.15.14-.238.361-.264.664h1.64c-.006-.267-.082-.48-.229-.64-.143-.16-.337-.24-.58-.24zm6.963-1.298c.166 0 .324.013.474.04l.107.019-.17 1.801a2.808 2.808 0 0 0-.65-.058c-.417 0-.72.096-.908.288-.19.189-.284.462-.284.82V11h-1.909V5.468h1.421l.298.884h.093a1.9 1.9 0 0 1 .664-.708c.286-.183.574-.274.864-.274z"/></defs></svg>
